X: 8633
T: Crooked Still
R: reel
M: 4/4
K: Dmajor
F|:GBdf e2dB|dBef eddF|GBdf e2dB|dafe eddF|
GBdf e2dB|dBef ed (3Bcd|affe edBd|dfed d4:|
|:DGBG aGgf|dGBd a2gf|dFBd f2ed|deAA ABd2|
DGBG aGgf|dGBd a2gf|dFBd f2ed|1 deAA ABd2:|2 deAA dcBA||

